X: 57
T: JIG: Out on the Ocean
C: C: Trad.; S: Various
C: Set Leaders: Oliushka, Anton
Z: Anton Zille ed.; xikay01 at The Session
N: https://thesession.org/members/26966/sets/76537
R: Jig
M: 6/8
L: 1/8
Q: 3/8=116
K: Gmaj
|:D2B BAG|BdB ABA|GED G2A|BdB AGE|
D2B BAG|BdB ABA|GED G2A|1 BGF G2E :|2 BGF GBd||
e2e edB|ege edB|d2d dBA|ded dBA|
G2A B2d|e/f/ge dBA|GED G2A|BGF GBd|
e2e edB|ege edB|d2d def|gfe dBA|
G2A B2d|e/f/ge dBA|GED G2A|BGF GFE||

